www/static/img/overview/star-rating.svg

<svg fill="none" height="28" viewBox="0 0 140 28" width="140" xmlns="http://www.w3.org/2000/svg"><g fill="#005a7a"><path d="m14.6843 2.49379 2.5702 7.64381 8.0304.0934c.6911.0081.9771.8927.4229 1.3066l-6.4428 4.817 2.3931 7.7013c.2056.6627-.5426 1.2087-1.1067.8073l-6.551-4.667-6.5518 4.6661c-.5632.4014-1.31234-.1455-1.10673-.8073l2.39314-7.7013-6.44278-4.817c-.55426-.4139-.26819-1.2985.42284-1.3066l8.03043-.0934 2.5702-7.64381c.2217-.65734 1.1478-.65734 1.3686.0009z"/><path d="m42.6843 2.49379 2.5702 7.64381 8.0304.0934c.6911.0081.9771.8927.4229 1.3066l-6.4428 4.817 2.3931 7.7013c.2056.6627-.5426 1.2087-1.1067.8073l-6.551-4.667-6.5518 4.6661c-.5632.4014-1.3123-.1455-1.1067-.8073l2.3931-7.7013-6.4428-4.817c-.5542-.4139-.2682-1.2985.4229-1.3066l8.0304-.0934 2.5702-7.64381c.2217-.65734 1.1478-.65734 1.3686.0009z"/><path d="m70.6843 2.49379 2.5702 7.64381 8.0304.0934c.6911.0081.9771.8927.4229 1.3066l-6.4428 4.817 2.3931 7.7013c.2056.6627-.5426 1.2087-1.1067.8073l-6.551-4.667-6.5518 4.6661c-.5632.4014-1.3123-.1455-1.1067-.8073l2.3931-7.7013-6.4428-4.817c-.5542-.4139-.2682-1.2985.4229-1.3066l8.0304-.0934 2.5702-7.64381c.2217-.65734 1.1478-.65734 1.3686.0009z"/><path d="m98.6843 2.49379 2.5697 7.64381 8.031.0934c.691.0081.977.8927.423 1.3066l-6.443 4.817 2.393 7.7013c.206.6627-.543 1.2087-1.107.8073l-6.5506-4.667-6.5518 4.6661c-.5632.4014-1.3123-.1455-1.1067-.8073l2.3931-7.7013-6.4428-4.817c-.5542-.4139-.2682-1.2985.4229-1.3066l8.0304-.0934 2.5702-7.64381c.2217-.65734 1.1478-.65734 1.3686.0009z"/><path d="m126.684 2.49379 2.57 7.64381 8.031.0934c.691.0081.977.8927.423 1.3066l-6.443 4.817 2.393 7.7013c.206.6627-.543 1.2087-1.107.8073l-6.551-4.667-6.551 4.6661c-.564.4014-1.313-.1455-1.107-.8073l2.393-7.7013-6.443-4.817c-.554-.4139-.268-1.2985.423-1.3066l8.03-.0934 2.571-7.64381c.221-.65734 1.147-.65734 1.368.0009z"/></g></svg>

<svg width="140" height="28" viewBox="0 0 140 28" fill="none" xmlns="http://www.w3.org/2000/svg">
<path d="M14.6843 2.49379L17.2545 10.1376L25.2849 10.231C25.976 10.2391 26.262 11.1237 25.7078 11.5376L19.265 16.3546L21.6581 24.0559C21.8637 24.7186 21.1155 25.2646 20.5514 24.8632L14.0004 20.1962L7.4486 24.8623C6.8854 25.2637 6.13626 24.7168 6.34187 24.055L8.73501 16.3537L2.29223 11.5367C1.73797 11.1228 2.02404 10.2382 2.71507 10.2301L10.7455 10.1367L13.3157 2.49289C13.5374 1.83555 14.4635 1.83555 14.6843 2.49379Z" fill="#005A7A"/>
<path d="M42.6843 2.49379L45.2545 10.1376L53.2849 10.231C53.976 10.2391 54.262 11.1237 53.7078 11.5376L47.265 16.3546L49.6581 24.0559C49.8637 24.7186 49.1155 25.2646 48.5514 24.8632L42.0004 20.1962L35.4486 24.8623C34.8854 25.2637 34.1363 24.7168 34.3419 24.055L36.735 16.3537L30.2922 11.5367C29.738 11.1228 30.024 10.2382 30.7151 10.2301L38.7455 10.1367L41.3157 2.49289C41.5374 1.83555 42.4635 1.83555 42.6843 2.49379Z" fill="#005A7A"/>
<path d="M70.6843 2.49379L73.2545 10.1376L81.2849 10.231C81.976 10.2391 82.262 11.1237 81.7078 11.5376L75.265 16.3546L77.6581 24.0559C77.8637 24.7186 77.1155 25.2646 76.5514 24.8632L70.0004 20.1962L63.4486 24.8623C62.8854 25.2637 62.1363 24.7168 62.3419 24.055L64.735 16.3537L58.2922 11.5367C57.738 11.1228 58.024 10.2382 58.7151 10.2301L66.7455 10.1367L69.3157 2.49289C69.5374 1.83555 70.4635 1.83555 70.6843 2.49379Z" fill="#005A7A"/>
<path d="M98.6843 2.49379L101.254 10.1376L109.285 10.231C109.976 10.2391 110.262 11.1237 109.708 11.5376L103.265 16.3546L105.658 24.0559C105.864 24.7186 105.115 25.2646 104.551 24.8632L98.0004 20.1962L91.4486 24.8623C90.8854 25.2637 90.1363 24.7168 90.3419 24.055L92.735 16.3537L86.2922 11.5367C85.738 11.1228 86.024 10.2382 86.7151 10.2301L94.7455 10.1367L97.3157 2.49289C97.5374 1.83555 98.4635 1.83555 98.6843 2.49379Z" fill="#005A7A"/>
<path d="M126.684 2.49379L129.254 10.1376L137.285 10.231C137.976 10.2391 138.262 11.1237 137.708 11.5376L131.265 16.3546L133.658 24.0559C133.864 24.7186 133.115 25.2646 132.551 24.8632L126 20.1962L119.449 24.8623C118.885 25.2637 118.136 24.7168 118.342 24.055L120.735 16.3537L114.292 11.5367C113.738 11.1228 114.024 10.2382 114.715 10.2301L122.745 10.1367L125.316 2.49289C125.537 1.83555 126.463 1.83555 126.684 2.49379Z" fill="#005A7A"/>
</svg>
